!!!COM: Haydn, Franz Joseph
!!!OTL: String Quartet in E-flat Major
!!!OPS: Opus 64
!!!ONM: No. 6
!!!OMD: Allegro
!!!OMV: 1
!!!SCT: H III:64
!!!SCA: Thematisch-bibliographisches Werkevererzeichnis (A. van Hoboken)
!!!YOR: Trautwein Edition
!!!ENC: Frances Bennion
!!!CDT: 1732/3/31/-1809/5/31/
!!!CNT: Oesterreich
!!!YEC: Copyright (c) 1994, 2000 Center for Computer Assisted Research in the Humanities
!!!YEM: Rights to all derivative editions reserved.
!!!YEM: Refer to licensing agreement for further details.
!!!YEN: United States of America
**kern	**kern	**kern	**kern
*k[b-e-a-]	*k[b-e-a-]	*k[b-e-a-]	*k[b-e-a-]
*E-:	*E-:	*E-:	*E-:
*clefF4	*clefC3	*clefF	*clefF
*M4/4	*M4/4	*M4/4	*M4/4
[1EE-	2G	[1B-	2e-
.	2A-	.	2f
=2	=2	=2	=2
1EE-]	2F	1B-]	4d
.	.	.	4b-
.	2G	.	4g
.	.	.	4e-
=3	=3	=3	=3
4AA-	4E-	4c	4c
4r	4r	4r	4e-
4GG	4E-	4B-	4B-
4r	4r	4r	4e-
=4	=4	=4	=4
4DD	2.B-	4B-	8.f
.	.	.	16g
4EE-	.	8.f	8.a-
.	.	16e-	16g
4BB-	.	4d	4f
4r	4r	4r	4r
=5	=5	=5	=5
[1EE-	2G	[1B-	2e-
.	2A-	.	2f
=6	=6	=6	=6
1EE-]	2F	1B-]	4d
.	.	.	4b-
.	2G	.	4g
.	.	.	4e-
=7	=7	=7	=7
2GG	1E-	4B-	4d-
.	.	4b-	4dd-
2AA-	.	4a-	4cc
.	.	4c	4a-
=8	=8	=8	=8
2BB-	4D	4B-	4f
.	8.D	4A-	8.b-
.	16F	.	16d
4EE-	4E-	4G	4e-
4r	4r	4r	4r
=9	=9	=9	=9
1r	8a-	2dd	4ff
.	8b-	.	.
.	8a-	.	8.bb-
.	8b-	.	.
.	.	.	16dd
.	8g	8ee-	4ee-
.	8b-	4.r	.
.	8g	.	4r
.	8b-	.	.
=10	=10	=10	=10
1r	8a-	2dd	4ff
.	8b-	.	.
.	8a-	.	8.bb-
.	8b-	.	.
.	.	.	16dd
.	8g	8ee-	4ee-
.	8b-	4.r	.
.	8g	.	4r
.	8b-	.	.
=11	=11	=11	=11
[1B-	2d	2a-	8ff
.	.	.	8gg
.	.	.	8aa-
.	.	.	8aa
.	2e-	2g	4bb-
.	.	.	8aa-
.	.	.	8gg
=12	=12	=12	=12
2B-]	2a-	2d	8gg
.	.	.	8ff
.	.	.	8ff
.	.	.	8ee-
4e-	4g	4e-	4ee-
4r	4r	4r	4r
=13	=13	=13	=13
2BB	2B	2B	2B
2C	2c	2c	2c
=14	=14	=14	=14
4AA	4A	4A	4A
4F	4f	4f	4f
4D	4d	4d	4d
4BB-	4B-	4B-	4B-
=15	=15	=15	=15
2EE-	2E-	4G	4G
.	.	2c	2e-
2EE	2E	.	.
.	.	4B-	4d
=16	=16	=16	=16
4FF	4F	8A	8c
.	.	8G	8B-
4FF	2.r	8A	8c
.	.	8B-	8d
4FF	.	4A	4c
4FF	.	4r	4r
=17	=17	=17	=17
4FF	1r	8B-	8d
.	.	8A	8c
4FF	.	8B-	8d
.	.	8c	8e-
4FF	.	4B-	4d
4FF	.	4r	4r
=18	=18	=18	=18
4FF	1c	1e-	12a
.	.	.	12cc
.	.	.	12b-
4FF	.	.	12a
.	.	.	12cc
.	.	.	12b-
4FF	.	.	4a
4FF	.	.	4r
=19	=19	=19	=19
4FF	1B-	1d	12b-
.	.	.	12dd
.	.	.	12cc
4FF	.	.	12b-
.	.	.	12dd
.	.	.	12cc
4FF	.	.	4b-
4FF	.	.	4r
=20	=20	=20	=20
4FF	2e-	2a	12cc
.	.	.	12ee-
.	.	.	12dd
4FF	.	.	12cc
.	.	.	12dd
.	.	.	12ee-
4FF	2d	2b-	12dd
.	.	.	12ff
.	.	.	12ee-
4FF	.	.	12dd
.	.	.	12cc
.	.	.	12b-
=21	=21	=21	=21
4FF	1g	1b-	12ee
.	.	.	12gg
.	.	.	12ff
4FF	.	.	12ee
.	.	.	12gg
.	.	.	12bb-
4FF	.	.	12gg
.	.	.	12ee
.	.	.	12cc
4FF	.	.	12b-
.	.	.	12g
.	.	.	12e
=22	=22	=22	=22
4FF	4f	1a	12f
.	.	.	12a
.	.	.	12g
4FF	4c	.	12f
.	.	.	12a
.	.	.	12cc
4FF	4A	.	12ff
.	.	.	12ee
.	.	.	12ff
4FF	4c	.	12aa
.	.	.	12gg
.	.	.	12ff
=23	=23	=23	=23
4FF	1g	1b-	12ee
.	.	.	12gg
.	.	.	12ff
4FF	.	.	12ee
.	.	.	12gg
.	.	.	12bb-
4FF	.	.	12gg
.	.	.	12ee
.	.	.	12cc
4FF	.	.	12b-
.	.	.	12g
.	.	.	12e
=24	=24	=24	=24
4FF	4f	4a	2f
2.r	2.r	2.r	.
.	.	.	8g-
.	.	.	8g
.	.	.	8a-
.	.	.	8a
=25	=25	=25	=25
1r	2d	2f	2b-
.	2e-	2g	2cc
=26	=26	=26	=26
2F	2c	2e-	4a
.	.	.	4ff
2G	2B-	2d	4dd
.	.	.	4b-
=27	=27	=27	=27
4E	1r	4r	4r
4c	.	2gg	2bb-
4F	.	.	.
4c	.	4ff	4aa
=28	=28	=28	=28
1r	4A	4r	4r
.	4f	2ee-	2gg
.	4B-	.	.
.	4d	4dd	4ff
=29	=29	=29	=29
1r	2e-	4cc	4ee-
.	.	2b-	2dd
.	2f	.	.
.	.	4a	4cc
=30	=30	=30	=30
1r	2B-	2a	4cc
.	.	.	4cc#
.	2r	4b-	8dd
.	.	.	8cc
.	.	4r	8dd
.	.	.	8ee-
=31	=31	=31	=31
2.B-	2dd	2.r	2ff
.	4dd-	.	4ee
4A	4cc	[4ff	4ff
=32	=32	=32	=32
4G	4b-	4ff]	8.gg
.	.	.	16aa
4C	4g	4ee	8.bb-
.	.	.	16ccc
4F	4a	4ff	8bb-
.	.	.	8aa
4r	4r	4r	8gg
.	.	.	8ff
=33	=33	=33	=33
1r	2G	1b-	2ee-
.	2g	.	4dd
.	.	.	4cc#
=34	=34	=34	=34
1r	2f#	2a	2dd
.	2f	2a-	2b
=35	=35	=35	=35
1r	4e-	4g	8.cc
.	.	.	16dd
.	4E-	8.g	8.ee-
.	.	16e-	16cc
.	4F	4d	4b-
.	4F	4c	4a
=36	=36	=36	=36
4r	4B-	4d	4b-
4A	4A	4f	12cc
.	.	.	12ff
.	.	.	12ee-
4B-	4B-	4f	12dd
.	.	.	12cc
.	.	.	12b-
4A	4A	4f	12cc
.	.	.	12ff
.	.	.	12ee-
=37	=37	=37	=37
4B-	4B-	4f	12dd
.	.	.	12cc
.	.	.	12b-
4B	4B	4g	12dd
.	.	.	12gg
.	.	.	12ff
4c	4c	4g	12ee-
.	.	.	12dd
.	.	.	12cc
4E-	4c	4ff	12aa
.	.	.	12ff
.	.	.	12aa
=38	=38	=38	=38
4D	4B-	4ff	12bb-
.	.	.	12ff
.	.	.	12dd
4E-	4g	4ee-	12b
.	.	.	12cc
.	.	.	12gg
4F	4r	4dd	12ff
.	.	.	12dd
.	.	.	12b-
4F	12A	4cc	12ee-
.	12c	.	12cc
.	12e-	.	12a
=39	=39	=39	=39
4G	4d-	4b- 4e	12b-
.	.	.	12a
.	.	.	12b-
4r	4r	4r	12dd-
.	.	.	12cc
.	.	.	12b-
4G	4d-	4b- 4e	12e
.	.	.	12b-
.	.	.	12cc
4r	4r	4r	12dd-
.	.	.	12cc
.	.	.	12b-
=40	=40	=40	=40
1G	1d-	1e 1b-	12G
.	.	.	12e
.	.	.	12b-
.	.	.	12dd-
.	.	.	12cc
.	.	.	12b-
.	.	.	12bb-
.	.	.	12b-
.	.	.	12cc
.	.	.	12dd-
.	.	.	12cc
.	.	.	12b-
=41	=41	=41	=41
4F	4r	4r	[3..bb-
2.r	4d	4b-	.
.	2e-	2cc	.
.	.	.	24bb-]
.	.	.	8aa
.	.	.	8gg
.	.	.	8ff
=42	=42	=42	=42
4F	4r	4r	[3..bb-
2.r	4d	4b-	.
.	2e-	2cc	.
.	.	.	24bb-]
.	.	.	8aa
.	.	.	8gg
.	.	.	8ff
=43	=43	=43	=43
4F	4d	4b-	8bb-
.	.	.	8aa
4r	4e-	4cc	8gg
.	.	.	8ff
4F	4d	4b-	8bb-
.	.	.	8aa
4r	4e-	4cc	8gg
.	.	.	8ff
=44	=44	=44	=44
8F	8d	8b-	16bb-
.	.	.	16aa
8F	8e-	8cc	16gg
.	.	.	16ff
8F	8d	8b-	16bb-
.	.	.	16aa
8F	8e-	8cc	16gg
.	.	.	16ff
8F	8d	8b-	16bb-
.	.	.	16aa
8F	8e-	8cc	16gg
.	.	.	16ff
8F	8d	8b-	16bb-
.	.	.	16aa
8F	8e-	8cc	16gg
.	.	.	16ff
=45	=45	=45	=45
4BB-	4d	4b-	4bb-
4BB-	4B- 4D	4ff	4ddd
4BB-	4B- 4D	4dd	4bb-
4r	4r	4r	4r
=46	=46	=46	=46
1r	1r	2r	2ff
.	.	2b-	2gg
=47	=47	=47	=47
1r	1r	4cc	4ee-
.	.	4a	4ccc
.	.	4ff	4aa
.	.	4dd	4ff
=48	=48	=48	=48
1r	1r	4b-	4dd
.	.	4g	4bb-
.	.	4ee-	4gg
.	.	4cc	4ee-
=49	=49	=49	=49
2r	2f	2a	4cc
.	.	.	4ff
2B-	2g	2b-	4dd
.	.	.	4b-
=50	=50	=50	=50
4c	4e-	1r	1r
4A	4cc	.	.
4f	4a	.	.
4d	4f	.	.
=51	=51	=51	=51
4B-	4d	1r	1r
4G	4b-	.	.
4e-	4g	.	.
4c	4e-	.	.
=52	=52	=52	=52
4A	4c	2r	1r
4F#	4a	.	.
2d	4f#	2dd	.
.	4d	.	.
=53	=53	=53	=53
2G	2.b-	2ee-	1r
2A	.	2cc#	.
.	8a	.	.
.	8g	.	.
=54	=54	=54	=54
2D	4f#	4dd	1r
.	2d	4aa	.
2r	.	4ff#	.
.	8e	4cc	.
.	8g-	.	.
=55	=55	=55	=55
1r	2g	4b-	1r
.	.	4gg	.
.	2f	4b	.
.	.	[4dd	.
=56	=56	=56	=56
2r	2e-	4dd]	2gg
.	.	8cc	.
.	.	8dd	.
[2c	2r	4ee-	2aa-
.	.	4ee-	.
=57	=57	=57	=57
8c]	4a	4dd	4ff#
8B	.	.	.
8c	4f#	4r	4ddd
8A	.	.	.
2G	8dd	8ff	4bb
.	8cc#	8ee	.
.	8dd	8ff	4gg
.	8b	8dd	.
=58	=58	=58	=58
8B-	8g	4cc	4ee
8A	8f	.	.
8B-	8g	4g	4ccc
8G	8e	.	.
2F	8cc	8ee-	4aa
.	8b	8dd	.
.	8cc	8ee-	4ff
.	8a	8cc	.
=59	=59	=59	=59
8A-	8f	4b-	4dd
8G	8e-	.	.
8A-	8f	4f	4bb-
8F	8d	.	.
4.E-	4b-	4g	4gg
.	8g	[4gg	4ee-
8D	8f	.	.
=60	=60	=60	=60
8C	4e-	2gg]	1aa-
8BB-	.	.	.
8C	2.r	.	.
8E-	.	.	.
8D	.	[2ff	.
8C	.	.	.
8D	.	.	.
8BB-	.	.	.
=61	=61	=61	=61
4E-	2e-	4ff]	2gg
2.r	.	2ee-	.
.	2f	.	4.aa-
.	.	8dd	.
.	.	8cc	16gg
.	.	.	16aa-
=62	=62	=62	=62
1r	4d	4b-	8bb-
.	.	.	8aa-
.	4b-	8cc	8gg
.	.	8dd	8ff
.	4g	8ee-	4gg
.	.	8dd	.
.	4e-	8cc	[4gg
.	.	8b-	.
=63	=63	=63	=63
1r	4f	2a-	4gg]
.	4d	.	2ff
.	4e-	2g	.
.	4A	.	[4ee-
=64	=64	=64	=64
2BB-	4B-	2f	4ee-]
.	2.r	.	2dd
2C	.	[2e-	.
.	.	.	4g
=65	=65	=65	=65
4AA	1r	4e-]	8cc
.	.	.	8f
4F	.	8d	8g
.	.	8c	8a
4D	.	8f	[2b-
.	.	8e-	.
4BB-	.	8f	.
.	.	8d	.
=66	=66	=66	=66
2.C	1r	2.e-	4b-]
.	.	.	8a-
.	.	.	8g
.	.	.	8a-
.	.	.	8cc
4D	.	4f	8b-
.	.	.	8a-
=67	=67	=67	=67
4E-	1r	8g	4g
.	.	8b-	.
2.r	.	8g	4ee-
.	.	8b-	.
.	.	8g	4ee-
.	.	8b-	.
.	.	8g	4ee
.	.	8b-	.
=68	=68	=68	=68
1r	1r	8a-	4ff
.	.	8b-	.
.	.	8a-	8.bb-
.	.	8b-	.
.	.	.	16dd
.	.	8g	4ee-
.	.	8b-	.
.	.	8g	4r
.	.	8b-	.
=69	=69	=69	=69
4DD	1r	8a-	1r
.	.	8b-	.
8.FF	.	8a-	.
.	.	8b-	.
16DD	.	.	.
4EE-	.	8g	.
.	.	8b-	.
4r	.	8g	.
.	.	8b-	.
=70	=70	=70	=70
1r	1r	8g	4dd-
.	.	8b-	.
.	.	8g	8.ff
.	.	8b-	.
.	.	.	16dd-
.	.	8a-	4cc
.	.	8cc	.
.	.	8a-	4r
.	.	8cc	.
=71	=71	=71	=71
4DD-	1r	8g	1r
.	.	8b-	.
8.FF	.	8g	.
.	.	8b-	.
16DD-	.	.	.
4CC	.	8a-	.
.	.	8cc	.
4r	.	8a-	.
.	.	8cc	.
=72	=72	=72	=72
1r	4E	8b-	1r
.	.	8cc	.
.	8.G	8b-	.
.	.	8cc	.
.	16E	.	.
.	4F	8a-	.
.	.	8cc	.
.	4r	8a-	.
.	.	8cc	.
=73	=73	=73	=73
4e	1r	8b-	1r
.	.	8cc	.
8.g	.	8b-	.
.	.	8cc	.
16e	.	.	.
4f	.	8a-	.
.	.	8cc	.
4r	.	8a-	.
.	.	8cc	.
=74	=74	=74	=74
1r	1r	8c	4ee-
.	.	8a-	.
.	.	8c	8.gg-
.	.	8a-	.
.	.	.	16ee-
.	.	8d-	4ff
.	.	8a-	.
.	.	8d-	4r
.	.	8a-	.
=75	=75	=75	=75
4CC	1r	8A-	1r
.	.	8g-	.
8.EE-	.	8A-	.
.	.	8g-	.
16CC	.	.	.
4DD-	.	8A-	.
.	.	8f	.
4r	.	8A-	.
.	.	8f	.
=76	=76	=76	=76
1r	1r	8d-	4aa-
.	.	8f-	.
.	.	8d-	8.bb--
.	.	8f-	.
.	.	.	16gg
.	.	8d-	4aa-
.	.	8f-	.
.	.	8d-	4r
.	.	8f-	.
=77	=77	=77	=77
1r	4a-	8d-	1r
.	.	8f-	.
.	8.b--	8d-	.
.	.	8f-	.
.	16g	.	.
.	4a-	8d-	.
.	.	8f-	.
.	4r	8d-	.
.	.	8f-	.
=78	=78	=78	=78
1r	1r	8d-	4gg
.	.	8e-	.
.	.	8d-	8.aa-
.	.	8e-	.
.	.	.	16ff
.	.	8d-	4gg
.	.	8e-	.
.	.	8d-	4r
.	.	8e-	.
=79	=79	=79	=79
1r	4G	8d-	1r
.	.	8e-	.
.	8.A-	8d-	.
.	.	8e-	.
.	16F	.	.
.	4G	8d-	.
.	.	8e-	.
.	4r	8d-	.
.	.	8e-	.
=80	=80	=80	=80
1r	1r	8c	4gg-
.	.	8e-	.
.	.	8c	8.aa-
.	.	8e-	.
.	.	.	16ff
.	.	8c	4gg-
.	.	8e-	.
.	.	8c	4r
.	.	8e-	.
=81	=81	=81	=81
1r	4G-	8c	1r
.	.	8e-	.
.	8.A-	8c	.
.	.	8e-	.
.	16F	.	.
.	4G-	8c	.
.	.	8e-	.
.	4r	8c	.
.	.	8e-	.
=82	=82	=82	=82
1r	1r	8c-	4ff
.	.	8d-	.
.	.	8c-	8.gg-
.	.	8d-	.
.	.	.	16ee-
.	.	8c-	4ff
.	.	8d-	.
.	.	8c-	4r
.	.	8d-	.
=83	=83	=83	=83
1r	4F	8c-	1r
.	.	8d-	.
.	8.G-	8c-	.
.	.	8d-	.
.	16E-	.	.
.	4F	8c-	.
.	.	8d-	.
.	4r	8c-	.
.	.	8d-	.
=84	=84	=84	=84
[1GG-	2B-	2d-	2g-
.	2c-	2e-	2a-
=85	=85	=85	=85
1GG-]	2A-	2c-	4f
.	.	.	4dd-
.	2B-	2d-	4b-
.	.	.	4g-
=86	=86	=86	=86
4C-	4G-	4e-	4e-
4r	4r	4r	4g-
4BB-	4G-	4d-	4d-
4r	4r	4r	4g-
=87	=87	=87	=87
4FF	2.D-	4d-	8.a-
.	.	.	16b-
4GG-	.	8.a-	8.cc-
.	.	16g-	16b-
4D-	.	4f	4a-
4r	4r	4r	4r
=88	=88	=88	=88
[1G-	2B-	2d-	2g-
.	2c-	2e-	2a-
=89	=89	=89	=89
1G-]	2A-	2c-	4f
.	.	.	4dd-
.	2B-	2d-	4b-
.	.	.	4g-
=90	=90	=90	=90
1E-	1B-	1d-	4g
.	.	.	4dd-
.	.	.	4b-
.	.	.	4g
=91	=91	=91	=91
1A-	1A-	1c-	4a-
.	.	.	4ee-
.	.	.	4cc-
.	.	.	4a-
=92	=92	=92	=92
1F	1c	1e-	4a
.	.	.	4ee-
.	.	.	4cc
.	.	.	4a
=93	=93	=93	=93
2B-	2B-	2d-	8b-
.	.	.	8ff
.	.	.	8dd-
.	.	.	8b-
2G	2d	2f	8b
.	.	.	8ff
.	.	.	8dd
.	.	.	8b
=94	=94	=94	=94
2c	2c	2e-	8cc
.	.	.	8gg
.	.	.	8ee-
.	.	.	8cc
4AA-	4F#	4ee-	4ccc
4A-	4cc	4cc	4ff#
=95	=95	=95	=95
[1G	8b	8dd	2gg
.	8a	8cc	.
.	8b	8dd	.
.	8g	8b	.
.	8cc	8ee-	2ff#
.	8b	8dd	.
.	8cc	8ee-	.
.	8a	8cc	.
=96	=96	=96	=96
1G_	8b	8dd	2gg
.	8a	8cc	.
.	8b	8dd	.
.	8g	8b	.
.	8cc	8ee-	2ff#
.	8b	8dd	.
.	8cc	8ee-	.
.	8a	8cc	.
=97	=97	=97	=97
4G]	4b	4dd	4gg
2.r	2.r	2.r	2.r
=98	=98	=98	=98
[1EE-	2G	[1B-	2e-
.	2A-	.	2f
=99	=99	=99	=99
1EE-]	2F	1B-]	4d
.	.	.	4b-
.	2G	.	4g
.	.	.	4e-
=100	=100	=100	=100
4AA-	4E-	4c	4c
4r	4r	4r	4e-
4GG	4E-	4B-	4B-
4r	4r	4r	4e-
=101	=101	=101	=101
4DD	2.B-	4B-	8.f
.	.	.	16g
4EE-	.	8.f	8.a-
.	.	16e-	16g
4BB-	.	4d	4f
4r	4r	4r	4r
=102	=102	=102	=102
2r	2E-	1r	1r
2AA-	2F	.	.
=103	=103	=103	=103
4BB-	4D	1r	1r
4GG	4B-	.	.
4E-	4G	.	.
4C	4E-	.	.
=104	=104	=104	=104
4AA-	4C	2r	1r
4FF	4A-	.	.
4D	4F	2B-	.
4BB-	4D	.	.
=105	=105	=105	=105
1r	1r	2c	2e-
.	.	4A	4f
.	.	4f	4d
=106	=106	=106	=106
1r	1r	4d	4b-
.	.	4B-	4g
.	.	4g	4e-
.	.	4e-	4cc
=107	=107	=107	=107
1r	1r	4c	4a-
.	.	4a-	4f
.	.	4f	4dd
.	.	4d	4b-
=108	=108	=108	=108
2EE-	1r	4b-	4g
.	.	4g	2ee-
2FF	.	2a-	.
.	.	.	4dd
=109	=109	=109	=109
4DD	4r	4f	4b-
4BB-	4d	2ff	2aa-
4EE-	4e-	.	.
4BB-	4e-	8ee-	[4gg
.	.	8dd	.
=110	=110	=110	=110
4AA-	2e-	[1cc	4gg]
4A-	.	.	2ff
4AA	2r	.	.
4A	.	.	[4ee-
=111	=111	=111	=111
4BB-	1r	4cc]	4ee-]
4B-	.	2b-	2dd
4C	.	.	.
4c	.	[4a-	[4cc
=112	=112	=112	=112
4D	4r	4a-]	4cc]
4d	4f	4a-	4b-
4d	4f	4a-	4b-
4d	4f	4a-	4b-
=113	=113	=113	=113
2.e-	4g	2g	2b-
.	2r	.	.
.	.	4g-	4a
4d	[4b-	4f	4b-
=114	=114	=114	=114
4c	4b-]	4e-	8.cc
.	.	.	16dd
4F	4a	4cc	8.ee-
.	.	.	16ff
4B-	4b-	4f	8ee-
.	.	.	8dd
4r	4r	4r	8cc
.	.	.	8b-
=115	=115	=115	=115
1c	1r	1e-	2a-
.	.	.	4g
.	.	.	4f#
=116	=116	=116	=116
2B	2r	2d	2g
2B-	2G	2d-	2e
=117	=117	=117	=117
4A-	4A-	4c	8.f
.	.	.	16g
4AA-	4r	8.c	8.a-
.	.	16A-	16f
4BB-	4B-	4G	4e-
4BB-	4F	4A-	4d
=118	=118	=118	=118
4E-	4G	4G	4e-
4D	2.r	2B-	12f
.	.	.	12b-
.	.	.	12a-
4E-	.	.	12g
.	.	.	12f
.	.	.	12e-
4D	.	[4B-	12f
.	.	.	12b-
.	.	.	12a-
=119	=119	=119	=119
4E-	2.r	4B-]	12g
.	.	.	12f
.	.	.	12e-
4E	.	2c	12g
.	.	.	12cc
.	.	.	12b-
4F	.	.	12a-
.	.	.	12g
.	.	.	12f
4AA-	4f	[4B-	12dd
.	.	.	12b-
.	.	.	12dd
=120	=120	=120	=120
4GG	4e-	4B-]	12ee-
.	.	.	12b-
.	.	.	12g
4AA-	4cc	4a-	12e
.	.	.	12f
.	.	.	12cc
4BB-	4r	4g	12b-
.	.	.	12g
.	.	.	12e-
4BB-	12D	4f	12a-
.	12F	.	12f
.	12A-	.	12d
=121	=121	=121	=121
2C	4c	2A 2e-	12e-
.	.	.	12a
.	.	.	12cc
.	2.r	.	12ee-
.	.	.	12cc
.	.	.	12a
2r	.	2r	4e-
.	.	.	4r
=122	=122	=122	=122
2D	2f	2a- 2B-	12d
.	.	.	12f
.	.	.	12a-
.	.	.	12b-
.	.	.	12dd
.	.	.	12ff
2r	2r	2r	4aa-
.	.	.	4r
=123	=123	=123	=123
4r	4r	4r	2ee-
4e-	4g	4b-	.
4r	4r	4r	2ff
4A-	4a-	4cc	.
=124	=124	=124	=124
4r	4r	4r	4dd
4B-	4f	4b- 4d	4bb-
4r	4r	4r	4gg
4e-	4g	4b- 4g	4ee-
=125	=125	=125	=125
1r	1r	8r	4cc
.	.	8a-	.
.	.	8r	4aa-
.	.	8f	.
.	.	8r	4b-
.	.	8g	.
.	.	8r	4gg
.	.	8e-	.
=126	=126	=126	=126
1r	1r	8r	4a-
.	.	8f	.
.	.	8r	4ff
.	.	8d	.
.	.	4e-	8r
.	.	.	8g
.	.	4c	8r
.	.	.	8ee-
=127	=127	=127	=127
1r	1r	4d	8r
.	.	.	8f
.	.	4B-	8r
.	.	.	8dd
.	.	4c	8r
.	.	.	8e-
.	.	4A	8r
.	.	.	8cc
=128	=128	=128	=128
4B-	4B-	4B-	8r
.	.	.	8d
8r	8r	8r	8b-
8B-	8f	8d	4r
4A-	4d	4b-	.
.	.	.	8b-
8r	8r	8r	4dd
8A-	8f	8b-	.
=129	=129	=129	=129
4G	4B-	4ee-	8r
.	.	.	8b-
8r	8r	8r	4ee-
8G	8e-	8b-	.
4D	4B-	4ff	8r
.	.	.	8b-
8r	8r	8r	4ff
8D	8f	8b-	.
=130	=130	=130	=130
4E-	4B-	4gg	8r
.	.	.	8b-
8r	8r	8r	4gg
8E-	8g	8ee-	.
4d-	4b-	4gg	8r
.	.	.	8ee-
8r	8r	8r	4gg
8d-	8b-	8ee-	.
=131	=131	=131	=131
4c	4e-	4aa-	8r
.	.	.	8ee-
8r	8r	8r	4aa-
8c	8a-	8ee-	.
4G	4e-	4ddd-	8r
.	.	.	8ee-
8r	8r	8r	4ddd-
8G	8b-	8ee-	.
=132	=132	=132	=132
4A-	4e-	8ccc	8r
.	.	8bb-	8ee-
2.r	2.r	8aa-	8ccc
.	.	8gg	8bb-
.	.	8ff	8aa-
.	.	8ee-	8gg
.	.	8dd	8ff
.	.	8cc	8ee-
=133	=133	=133	=133
8r	8r	4.b-	4.dd
8B-	8B-	.	.
8f	8a-	.	.
8e-	8g	8cc	8ee-
8f	8a-	8b-	8dd
8e-	8g	8cc	8ee-
8d	8f	8dd	8ff
8c	8e-	8ee-	8gg
=134	=134	=134	=134
4B-	4d	4ff	4aa-
4c	4e-	4ee-	4gg
4A-	4a-	4cc	4ff
4B-	4f	4a-	4dd
=135	=135	=135	=135
4E-	4e-	4g	4ee-
4D	4f	2b-	12b-
.	.	.	12bb-
.	.	.	12aa-
4E-	4g	.	12gg
.	.	.	12ff
.	.	.	12ee-
4D	4f	[4b-	12b-
.	.	.	12bb-
.	.	.	12aa-
=136	=136	=136	=136
4E-	4g	4b-]	12gg
.	.	.	12ff
.	.	.	12ee-
4E	4g	2cc	12cc
.	.	.	12ccc
.	.	.	12bb-
4F	4a-	.	12aa-
.	.	.	12gg
.	.	.	12ff
4AA-	4f	[4b-	12dd
.	.	.	12ddd
.	.	.	12ddd
=137	=137	=137	=137
4GG	4e-	4b-]	12ee-
.	.	.	12eee-
.	.	.	12eee-
4AA-	4e-	4a-	4ccc
4BB-	4e-	4g	4bb-
4BB-	4B-	4f	4dd
=138	=138	=138	=138
4C	4G-	4e- 4A	12ee-
.	.	.	12cc
.	.	.	12a
4r	4r	4r	12g-
.	.	.	12e-
.	.	.	12c
4C	4G-	4A 4e-	12A
.	.	.	12g-
.	.	.	12f
4r	4r	4r	12g-
.	.	.	12f
.	.	.	12e-
=139	=139	=139	=139
1C	1G-	1e- 1A	12A
.	.	.	12e-
.	.	.	12f
.	.	.	12g-
.	.	.	12f
.	.	.	12e-
.	.	.	12ee-
.	.	.	12e-
.	.	.	12f
.	.	.	12g-
.	.	.	12f
.	.	.	12e-
=140	=140	=140	=140
4BB-	4r	4r	[3..ee-
2.r	4G	4e-	.
.	2A-	2f	.
.	.	.	24ee-]
.	.	.	8dd
.	.	.	8cc
.	.	.	8b-
=141	=141	=141	=141
4BB-	4r	4r	[3..ee-
2.r	4G	4e-	.
.	2A-	2f	.
.	.	.	24ee-]
.	.	.	8dd
.	.	.	8cc
.	.	.	8b-
=142	=142	=142	=142
4BB-	4G	4e-	8ee-
.	.	.	8dd
4r	4A-	4f	8cc
.	.	.	8b-
4BB-	4G	4e-	8ee-
.	.	.	8dd
4r	4A-	4f	8cc
.	.	.	8b-
=143	=143	=143	=143
8BB-	8G	8e-	16ee-
.	.	.	16dd
8BB-	8A-	8f	16cc
.	.	.	16b-
8BB-	8G	8e-	16ee-
.	.	.	16dd
8BB-	8A-	8f	16cc
.	.	.	16b-
8BB-	8G	8e-	16ee-
.	.	.	16dd
8BB-	8A-	8f	16cc
.	.	.	16b-
8BB-	8G	8e-	16ee-
.	.	.	16dd
8BB-	8A-	8f	16cc
.	.	.	16b-
=144	=144	=144	=144
4E-	4G	4e-	4ee-
4EE-	4B-	4e- 4G	4b- 4gg
4EE-	4e-	4e- 4G	4G 4e-
4r	4r	4r	4r
==	==	==	==
*-	*-	*-	*-
!!!RWG1: This file contains only pitch and duration data.
!!!RWG2: Transposing instruments are not transposed.
!!!RWG3: Spines may have incompatible meters.
!!!RWG4: Durations of rests and tied notes may be interpreted.
!!!RWG: Key is interpreted using the Humdrum key tool.
!!!GTL: 6 Quartetti ("Tost III")
!!!AFT: stage1
!!!END: 1997/04/15
!!!KEY: 1908564806
!!!EMD: Converted from MuseData to Humdrum Dec 16, 2000, by Andreas Kornstaedt using muse2kern.
!!!EMD: Manual editing by Craig Sapp, Nov 2001
